frontend/public/svg/logos/behance.svg

<svg width="183" height="165" viewBox="0 0 183 165" fill="none" xmlns="http://www.w3.org/2000/svg">
<g clip-path="url(#clip0)">
<path d="M96.0785 92.722C91.576 86.4513 85.7503 81.2478 79.0137 77.4798C79.0196 77.3715 79.0235 77.2764 79.0268 77.1936C79.0301 77.111 79.0308 77.0296 79.0373 76.9725C80.1616 75.3086 81.2971 73.6599 82.4129 72.0736C90.0119 61.4746 94.053 48.7381 93.9546 35.697C93.8994 22.5321 88.7446 13.1847 78.1959 7.1267C71.8951 3.44734 64.8236 1.28746 57.5426 0.819079C44.8602 -0.0341628 32.0767 1.02201 19.712 2.04458C17.7272 2.20866 15.7429 2.37051 13.7589 2.52978C2.70818 3.40206 2.12599 3.99588 1.30294 15.2396C0.71815 23.2273 0.718861 31.3803 0.719518 39.2617L0.715671 47.553C0.701888 65.4376 0.688109 83.931 0.982152 102.118C1.17905 114.212 1.61869 126.502 2.04597 138.387C2.24025 143.799 2.42749 149.211 2.60777 154.623C2.61761 154.939 2.61302 155.256 2.60777 155.573C2.58612 156.176 2.60812 156.779 2.67347 157.378C3.20576 161.481 5.16297 163.488 9.21584 164.09C10.2572 164.235 11.3078 164.302 12.3591 164.292C12.9268 164.292 13.4874 164.278 14.0347 164.262C16.3354 164.194 18.636 164.128 20.9367 164.065C29.2682 163.827 37.8834 163.581 46.3541 163.217L46.6822 163.203C55.8401 162.809 65.3097 162.399 74.5933 161.573C89.6286 160.234 99.7422 151.156 104.654 134.594C108.871 120.347 105.988 106.26 96.0785 92.722ZM61.7733 72.8704C58.6833 72.3013 55.4403 72.489 52.3044 72.6728C51.606 72.7128 50.9097 72.7542 50.2179 72.7863C40.5166 73.2399 30.8598 73.7433 20.6361 74.2769C16.9369 74.4738 13.1735 74.6667 9.32276 74.8676C9.58529 66.0661 9.26309 57.2861 8.94936 48.7878C8.48993 36.2944 8.01015 23.3821 9.44884 10.5231C10.1992 10.4768 10.9418 10.4294 11.6765 10.3808C13.6928 10.2496 15.5975 10.1281 17.5343 10.0427C20.079 9.93116 22.6241 9.80501 25.1687 9.67834C31.9231 9.34426 38.9073 8.99837 45.7719 8.94062C51.2307 8.89402 56.8299 9.60286 61.7636 10.2264C68.0049 11.014 73.8168 14.0956 79.5309 19.6417C82.8677 22.8801 84.3733 27.3367 84.4127 34.0898C84.5853 46.8681 80.0697 59.2666 71.7205 68.9409C68.7768 72.4405 65.8042 73.6074 61.7733 72.8697V72.8704ZM10.5508 82.6774C11.4973 82.4194 12.4677 82.2599 13.4467 82.1995C18.232 82.1037 23.1014 82.0624 27.8113 82.023C36.7887 81.9482 46.0712 81.8701 55.1884 81.4067C77.6354 80.2542 93.7931 98.5312 96.4414 116.853C97.9372 127.207 95.1852 136.472 88.2582 144.389C85.6112 147.594 81.9173 149.762 77.8277 150.509L77.0014 150.65C73.7833 151.268 70.5299 151.681 67.26 151.887C51.6239 152.512 35.7188 153.011 20.3375 153.494L17.4843 153.583C16.2767 153.597 15.0691 153.543 13.8672 153.424C13.3422 153.383 12.7889 153.341 12.1969 153.301L9.37467 82.9412C9.78357 82.8533 10.1728 82.7627 10.5508 82.6793V82.6774Z" fill="black"/>
<path d="M155.867 99.8381C151.099 99.2277 146.256 99.6714 141.678 101.139C137.1 102.606 132.9 105.061 129.376 108.329C125.947 111.594 123.278 115.572 121.555 119.982C119.832 124.392 119.099 129.125 119.407 133.85C119.554 137.317 120.422 140.716 121.954 143.83C123.486 146.943 125.65 149.704 128.307 151.936C134.172 157.012 142.445 159.583 150.667 159.583C158.175 159.583 165.642 157.438 171.19 153.097C173.177 151.511 174.793 149.509 175.923 147.233C176.58 145.915 175.732 143.316 174.62 142.337C173.54 141.389 171.601 141.442 169.861 141.563C168.908 141.628 168.078 142.467 167.409 143.138L167.278 143.269C161.115 149.439 153.364 151.188 142.15 148.928C133.697 147.226 128.584 140.685 128.372 131.366H134.852C140.103 131.363 145.196 131.361 150.289 131.371C153.163 131.377 156.037 131.391 158.91 131.412C164.478 131.446 170.234 131.482 175.895 131.426C180.776 131.379 182.224 129.996 182.357 125.264C182.539 118.733 180.655 113.552 176.597 109.421C171.261 103.993 164.481 100.861 155.867 99.8381ZM173.269 123.315L129.509 124.174C133.533 113.506 141.011 107.793 150.836 107.793C151.928 107.794 153.019 107.861 154.103 107.994C165.688 109.393 172.132 114.546 173.269 123.315Z" fill="black"/>
<path d="M170.57 81.3677C170.176 81.3769 169.879 81.3618 169.659 81.3861C166.311 81.6769 163.075 81.9545 159.923 82.2243C151.34 82.9607 143.232 83.6551 135.206 84.4322C132.9 84.6258 130.645 85.2165 128.539 86.178C127.934 86.4589 127.425 86.9125 127.075 87.4802C126.724 88.0486 126.549 88.7076 126.57 89.3751C126.596 90.097 126.831 90.7967 127.245 91.3887C127.66 91.9807 128.236 92.4408 128.907 92.7125C130.056 93.1549 131.28 93.3722 132.511 93.3518C132.723 93.3518 132.923 93.3466 133.108 93.338C145.978 92.7329 159.057 92.0503 171.706 91.39L173.033 91.3204C174.124 91.308 175.209 91.1669 176.267 90.8991C178.945 90.1075 180.381 88.2658 180.205 85.8459C180.02 83.2974 178.244 81.6021 175.57 81.4229C173.667 81.2916 171.729 81.3382 170.57 81.3677Z" fill="black"/>
</g>
<defs>
<clipPath id="clip0">
<rect width="182.462" height="164.741" fill="white" transform="translate(0.131104 0.0471191)"/>
</clipPath>
</defs>
</svg>

<svg xmlns="http://www.w3.org/2000/svg" width="183" height="165" fill="none" viewBox="0 0 183 165"><g fill="#000" clip-path="url(#a)"><path d="M96.079 92.722A52.65 52.65 0 0 0 79.014 77.48q.009-.163.013-.286c.003-.083.004-.164.01-.222a319 319 0 0 1 3.376-4.898 61.63 61.63 0 0 0 11.542-36.377c-.056-13.165-5.21-22.512-15.76-28.57A46.9 46.9 0 0 0 57.544.819c-12.683-.853-25.466.203-37.831 1.226q-2.978.246-5.953.485C2.709 3.402 2.126 3.996 1.303 15.24.718 23.227.719 31.38.72 39.262l-.004 8.291C.702 65.438.688 83.931.982 102.118c.197 12.094.637 24.384 1.064 36.269q.29 8.118.562 16.236c.01.316.005.633 0 .95q-.033.905.065 1.805c.533 4.103 2.49 6.11 6.543 6.712a21 21 0 0 0 3.143.202c.568 0 1.128-.014 1.676-.03q3.45-.102 6.902-.197c8.331-.238 16.946-.484 25.417-.848l.328-.014c9.158-.394 18.628-.804 27.911-1.63 15.036-1.339 25.15-10.417 30.061-26.979 4.217-14.247 1.334-28.334-8.575-41.872M61.773 72.87c-3.09-.569-6.333-.381-9.469-.197-.698.04-1.394.081-2.086.113-9.701.454-19.358.957-29.582 1.49-3.7.198-7.462.39-11.313.592.262-8.802-.06-17.582-.374-26.08-.46-12.494-.939-25.406.5-38.265q1.125-.07 2.228-.142c2.016-.131 3.92-.253 5.857-.338 2.545-.112 5.09-.238 7.635-.365 6.754-.334 13.738-.68 20.603-.737 5.459-.047 11.058.662 15.992 1.285 6.24.788 12.053 3.87 17.767 9.416 3.337 3.238 4.842 7.695 4.882 14.448A52.26 52.26 0 0 1 71.72 68.94c-2.944 3.5-5.917 4.667-9.948 3.93M10.55 82.677a14.4 14.4 0 0 1 2.896-.478c4.785-.095 9.654-.137 14.364-.176 8.978-.075 18.26-.153 27.377-.616 22.447-1.153 38.605 17.124 41.253 35.446 1.496 10.354-1.256 19.619-8.183 27.536a17.64 17.64 0 0 1-10.43 6.12l-.827.141a78 78 0 0 1-9.741 1.237c-15.636.625-31.541 1.124-46.923 1.607l-2.853.089a33 33 0 0 1-3.617-.159 158 158 0 0 0-1.67-.123l-2.822-70.36c.409-.088.798-.178 1.176-.262zm145.317 17.161a32.82 32.82 0 0 0-26.491 8.491 32.34 32.34 0 0 0-9.969 25.521 25 25 0 0 0 8.9 18.086c5.865 5.076 14.138 7.647 22.36 7.647 7.508 0 14.975-2.145 20.523-6.486a17.4 17.4 0 0 0 4.733-5.864c.657-1.318-.191-3.917-1.303-4.896-1.08-.948-3.019-.895-4.759-.774-.953.065-1.783.904-2.452 1.575l-.131.131c-6.163 6.17-13.914 7.919-25.128 5.659-8.453-1.702-13.566-8.243-13.778-17.562h6.48c5.251-.003 10.344-.005 15.437.005q4.311.01 8.621.041c5.568.034 11.324.07 16.985.014 4.881-.047 6.329-1.43 6.462-6.162.182-6.531-1.702-11.712-5.76-15.843-5.336-5.428-12.116-8.56-20.73-9.583m17.402 23.477-43.76.859c4.024-10.668 11.502-16.381 21.327-16.381a27 27 0 0 1 3.267.201c11.585 1.399 18.029 6.552 19.166 15.321m-2.699-41.947c-.394.009-.691-.006-.911.018-3.348.29-6.584.569-9.736.838-8.583.737-16.691 1.431-24.717 2.208a20.1 20.1 0 0 0-6.667 1.746 3.41 3.41 0 0 0-1.969 3.197 3.75 3.75 0 0 0 2.337 3.338 9.6 9.6 0 0 0 3.604.639q.319 0 .597-.014c12.87-.605 25.949-1.288 38.598-1.948l1.327-.07a13.8 13.8 0 0 0 3.234-.42c2.678-.793 4.114-2.634 3.938-5.054-.185-2.549-1.961-4.244-4.635-4.423-1.903-.131-3.841-.085-5-.055"/></g><defs><clipPath id="a"><path fill="#fff" d="M.131.047h182.462v164.741H.131z"/></clipPath></defs></svg>
